!!!OTL: ZU AUGSBURG STEHT EIN HOHES HAUS
!!!ARE: Europa, Mitteleuropa, Deutschland
!!!SCT: B0153
!!!YEM: Copyright 1995, estate of Helmut Schaffrath.
**kern
*ICvox
*Ivox
*M4/4
*k[f#]
*G:
{4d
=1
4.g
8f#
4g
4a
=2
4b
8cc
8a
4dd
8r}
{8cc
=3
4.b
8b
8b
8a
8dd
8cc
=4
2b
4r}
{4d
=5
4.g
8f#
4g
4a
=6
4b
8cc
8a
4dd
8r}
{8cc
=7
4.b
8b
8b
8a
8dd
8cc
=8
2b
4r}
{4dd
=9
4a
4b
4a
8r
8dd
=10
4a
8cc
8b
4a
8r}
{8a
=11
2b
8cc
8b
8cc
8ee
=12
2dd
4r}
{4ee
=13
2dd
8cc
8b
8cc
8a
=14
2g
4r}
==
!!!AGN: Ballade, Romanze
!!!ONB: ESAC (Essen Associative Code) Database: BOEHME
!!!AMT: simple quadruple
!!!AIN: vox
!!!EED: Helmut Schaffrath
!!!EEV: 1.0
*-
